src/topics/icons/geekbot.svg

<svg height="284" preserveAspectRatio="xMidYMid" viewBox="0 0 256 284" width="256" xmlns="http://www.w3.org/2000/svg"><g fill="none" fill-rule="evenodd"><ellipse cx="127.748451" cy="156.0842" fill="#6fc0bf" rx="127.748451" ry="127.477662"/><path d="m84.7773328 276.161153c13.429592 4.787341 27.8938012 7.400709 42.9711182 7.400709 14.773317 0 28.959074-2.511183 42.158751-7.114593l-2.294041-38.086701h-80.6184255z" fill="#d4d4d4"/><path d="m214.863253 128.898026c-15.97654-1.024399-10.591419 12.300453-11.615818 28.243783-1.026954 15.94333-8.077681 28.471144 7.901413 29.492988 15.976539 1.024399 19.800793-11.710338 20.827746-27.653668 1.021845-15.940775-1.136802-29.058704-17.113341-30.083103z" fill="#a3a3a3"/><path d="m169.357961 268.129454-1.747355-29.768886h-80.6158705l-.9145509 15.58313c13.1281478 16.584537 75.9894694 21.256921 83.2777764 14.185756z" fill="#a3a3a3"/><path d="m39.7446436 128.898026c15.9765395-1.024399 10.5914188 12.300453 11.6158179 28.243783 1.0269538 15.94333 8.0776812 28.471144-7.9014129 29.492988-15.9765395 1.024399-19.8007927-11.710338-20.8277465-27.653668-1.0269538-15.943329 1.1342474-29.058704 17.1133415-30.083103z" fill="#bfbfbf"/><path d="m127.303948 16.5870916c-49.3218814 0-89.3041039 39.8979203-89.3041039 89.1150634v106.920704c0 11.771649 14.6839061 43.405401 89.3041039 43.405401 74.620198 0 89.304104-31.631198 89.304104-43.405401v-106.920704c0-49.2171431-39.982222-89.1150634-89.304104-89.1150634z" fill="#d4d4d4"/><path d="m127.303948 256.02826c74.620198 0 89.304104-31.631198 89.304104-43.405401v-106.920704c0-49.2171431-39.982222-89.1150634-89.304104-89.1150634z" fill="#b3b3b3"/><path d="m49.7868209 87.6870352c-.7970387 2.9735676-1.4280277 6.0161097-1.8801939 9.1174079" stroke="#f0f0f0" stroke-width="3.238"/><path d="m88.4304271 38.3753719c-13.6160786 7.5386582-24.8027218 18.9143426-32.0935826 32.6658156" stroke="#f0f0f0" stroke-width="3.238"/><path d="m207.237738 113.491165c-12.111413-.934988-30.645118-1.313071-53.447579 2.794744-8.721443 1.571086-14.975132 7.518222-26.486211 7.518222-11.513633 0-17.764767-5.947136-26.48621-7.518222-22.8050161-4.107815-41.3361669-3.729732-53.450134-2.794744-10.3053023.794484-25.254888 2.838173-24.7363019 8.27694.2963349 3.121735.6028883 3.796153 1.2057766 6.866796.5952244 3.045097 5.1066681 2.65935 6.652208 6.261352 1.6604973 3.867682 6.2868985 20.518639 7.4696836 24.279027 2.3808978 7.564204 7.3138523 13.24055 14.934258 15.851363 10.7983423 3.701632 21.7984988 3.622439 32.9595959 2.076899 8.1492103-1.129138 14.8346278-5.162869 20.2197488-11.380793 4.268756-4.927846 7.306189-10.555655 9.763725-16.541109 1.218549-2.971013 2.255722-6.069757 3.895782-8.795527.970752-1.61196 2.835619-3.48449 4.516553-3.732287 1.129138-.16605 2.135655-.296335 3.052761-.3602.91455.063865 1.923622.19415 3.05276.3602 1.683489.245243 3.545801 2.117773 4.516553 3.732287 1.642615 2.728325 2.677233 5.824514 3.895782 8.795527 2.457537 5.985454 5.494969 11.613263 9.763725 16.541109 5.385121 6.217924 12.073093 10.251655 20.219749 11.380793 11.161097 1.548095 22.161254 1.624733 32.959596-2.076899 7.620406-2.610813 12.55336-8.287159 14.934258-15.851363 1.18534-3.762943 5.809186-20.411345 7.472238-24.279027 1.54554-3.599447 6.054429-3.213701 6.652208-6.261352.600334-3.070643.904333-3.745061 1.203222-6.866796.523695-5.436213-14.42589-7.479902-24.733747-8.27694zm-99.200669 26.238413c-.490485 10.44836-4.508889 19.371618-12.4971585 26.286951-4.5139983 3.908555-11.3016007 5.459204-25.2344511 5.459204-14.1014547 0-21.9364478-5.954799-23.7578857-9.891455-4.3939315-9.503154-6.0901935-19.790574-4.3862677-30.272145 1.0601637-6.511704 1.7984464-10.011521 23.46666-10.011521 24.0082376 0 33.5548203 4.452687 36.47985 5.862833 4.657057 2.245503 6.166832 7.485011 5.929253 12.566133zm100.018145 21.8547c-1.821438 3.936656-9.656431 9.891455-23.757886 9.891455-13.930296 0-20.720453-1.550649-25.234451-5.459204-7.985715-6.915333-12.004119-15.838591-12.494604-26.286951-.240134-5.078567 1.272196-10.32063 5.926698-12.563579 2.92503-1.410145 12.471613-5.862833 36.47985-5.862833 21.665659 0 22.403942 3.497263 23.46666 10.011522 1.703926 10.479016.007664 20.766436-4.386267 30.26959z" fill="#333"/><g fill="#fff"><path d="m108.037069 139.729578c-.490485 10.44836-4.508889 19.371618-12.4971585 26.286951-4.5139983 3.908555-11.3016007 5.459204-25.2344511 5.459204-14.1014547 0-21.9364478-5.954799-23.7578857-9.891455-4.3939315-9.503154-6.0901935-19.790574-4.3862677-30.272145 1.0601637-6.511704 1.7984464-10.011521 23.46666-10.011521 24.0082376 0 33.5548203 4.452687 36.47985 5.862833 4.657057 2.245503 6.166832 7.485011 5.929253 12.566133zm100.018145 21.8547c-1.821438 3.936656-9.656431 9.891455-23.757886 9.891455-13.930296 0-20.720453-1.550649-25.234451-5.459204-7.985715-6.915333-12.004119-15.838591-12.494604-26.286951-.240134-5.078567 1.272196-10.32063 5.926698-12.563579 2.92503-1.410145 12.471613-5.862833 36.47985-5.862833 21.665659 0 22.403942 3.497263 23.46666 10.011522 1.703926 10.479016.007664 20.766436-4.386267 30.26959z" opacity=".5"/><path d="m136.569524 141.448831c0 1.67838-1.361608 3.037433-3.042542 3.037433h-11.559617c-1.680934 0-3.042542-1.359053-3.042542-3.037433v-19.747145c0-1.67838 1.361608-3.037433 3.042542-3.037433h11.559617c1.680934 0 3.042542 1.359053 3.042542 3.037433z"/><path d="m190.844797 202.9511c-6.156614-12.379647-15.061989 2.797299-63.543403 2.797299-48.4814149 0-57.3867901-15.176946-63.5434035-2.797299-6.6598718 13.393827 32.0092804 27.270476 63.5434035 27.270476 31.534122 0 70.205829-13.876649 63.543403-27.270476z"/></g><path d="m190.844797 202.9511c-6.156614-12.379647-15.061989 2.797299-63.543403 2.797299v24.473177c31.534122 0 70.205829-13.876649 63.543403-27.270476z" fill="#f0f0f0"/><path d="m127.303948 0c-19.55555 0-33.6902145 7.54632198-31.8483397 16.7914605 1.8444294 9.2425839 5.4362127 28.489026 31.8483397 28.489026s30.003911-19.2464421 31.84834-28.489026c1.841875-9.24513852-12.29279-16.7914605-31.84834-16.7914605z" fill="#666"/><path d="m127.303948 0c19.55555 0 33.690215 7.54632198 31.84834 16.7914605-1.841875 9.2451385-5.436213 28.489026-31.84834 28.489026z" fill="#4d4d4d"/></g></svg>

<?xml version="1.0" encoding="UTF-8" standalone="no"?>
<svg width="256px" height="284px" viewBox="0 0 256 284" version="1.1" xmlns="http://www.w3.org/2000/svg" xmlns:xlink="http://www.w3.org/1999/xlink" preserveAspectRatio="xMidYMid">
    <g stroke="none" stroke-width="1" fill="none" fill-rule="evenodd">
		<ellipse fill="#6FC0BF" cx="127.748451" cy="156.0842" rx="127.748451" ry="127.477662"></ellipse>
		<path d="M84.7773328,276.161153 C98.2069248,280.948494 112.671134,283.561862 127.748451,283.561862 C142.521768,283.561862 156.707525,281.050679 169.907202,276.447269 L167.613161,238.360568 L86.9947355,238.360568 L84.7773328,276.161153 L84.7773328,276.161153 Z" fill="#D4D4D4"></path>
		<path d="M214.863253,128.898026 C198.886713,127.873627 204.271834,141.198479 203.247435,157.141809 C202.220481,173.085139 195.169754,185.612953 211.148848,186.634797 C227.125387,187.659196 230.949641,174.924459 231.976594,158.981129 C232.998439,143.040354 230.839792,129.922425 214.863253,128.898026 L214.863253,128.898026 Z" fill="#A3A3A3"></path>
		<path d="M169.357961,268.129454 L167.610606,238.360568 L86.9947355,238.360568 L86.0801846,253.943698 C99.2083324,270.528235 162.069654,275.200619 169.357961,268.129454 L169.357961,268.129454 Z" fill="#A3A3A3"></path>
		<path d="M39.7446436,128.898026 C55.7211831,127.873627 50.3360624,141.198479 51.3604615,157.141809 C52.3874153,173.085139 59.4381427,185.612953 43.4590486,186.634797 C27.4825091,187.659196 23.6582559,174.924459 22.6313021,158.981129 C21.6043483,143.0378 23.7655495,129.922425 39.7446436,128.898026 L39.7446436,128.898026 Z" fill="#BFBFBF"></path>
		<path d="M127.303948,16.5870916 L127.303948,16.5870916 L127.303948,16.5870916 L127.303948,16.5870916 L127.303948,16.5870916 C77.9820666,16.5870916 37.9998441,56.4850119 37.9998441,105.702155 L37.9998441,212.622859 C37.9998441,224.394508 52.6837502,256.02826 127.303948,256.02826 C201.924146,256.02826 216.608052,224.397062 216.608052,212.622859 L216.608052,105.702155 C216.608052,56.4850119 176.62583,16.5870916 127.303948,16.5870916 L127.303948,16.5870916 Z" fill="#D4D4D4"></path>
		<path d="M127.303948,256.02826 C201.924146,256.02826 216.608052,224.397062 216.608052,212.622859 L216.608052,105.702155 C216.608052,56.4850119 176.62583,16.5870916 127.303948,16.5870916 L127.303948,256.02826 L127.303948,256.02826 Z" fill="#B3B3B3"></path>
		<path d="M49.7868209,87.6870352 C48.9897822,90.6606028 48.3587932,93.7031449 47.906627,96.8044431" stroke="#F0F0F0" stroke-width="3.238"></path>
		<path d="M88.4304271,38.3753719 C74.8143485,45.9140301 63.6277053,57.2897145 56.3368445,71.0411875" stroke="#F0F0F0" stroke-width="3.238"></path>
		<path d="M207.237738,113.491165 C195.126325,112.556177 176.59262,112.178094 153.790159,116.285909 C145.068716,117.856995 138.815027,123.804131 127.303948,123.804131 C115.790315,123.804131 109.539181,117.856995 100.817738,116.285909 C78.0127219,112.178094 59.4815711,112.556177 47.367604,113.491165 C37.0623017,114.285649 22.112716,116.329338 22.6313021,121.768105 C22.927637,124.88984 23.2341904,125.564258 23.8370787,128.634901 C24.4323031,131.679998 28.9437468,131.294251 30.4892867,134.896253 C32.149784,138.763935 36.7761852,155.414892 37.9589703,159.17528 C40.3398681,166.739484 45.2728226,172.41583 52.8932283,175.026643 C63.6915706,178.728275 74.6917271,178.649082 85.8528242,177.103542 C94.0020345,175.974404 100.687452,171.940673 106.072573,165.722749 C110.341329,160.794903 113.378762,155.167094 115.836298,149.18164 C117.054847,146.210627 118.09202,143.111883 119.73208,140.386113 C120.702832,138.774153 122.567699,136.901623 124.248633,136.653826 C125.377771,136.487776 126.384288,136.357491 127.301394,136.293626 C128.215944,136.357491 129.225016,136.487776 130.354154,136.653826 C132.037643,136.899069 133.899955,138.771599 134.870707,140.386113 C136.513322,143.114438 137.54794,146.210627 138.766489,149.18164 C141.224026,155.167094 144.261458,160.794903 148.530214,165.722749 C153.915335,171.940673 160.603307,175.974404 168.749963,177.103542 C179.91106,178.651637 190.911217,178.728275 201.709559,175.026643 C209.329965,172.41583 214.262919,166.739484 216.643817,159.17528 C217.829157,155.412337 222.453003,138.763935 224.116055,134.896253 C225.661595,131.296806 230.170484,131.682552 230.768263,128.634901 C231.368597,125.564258 231.672596,124.88984 231.971485,121.768105 C232.49518,116.331892 217.545595,114.288203 207.237738,113.491165 L207.237738,113.491165 Z M108.037069,139.729578 C107.546584,150.177938 103.52818,159.101196 95.5399105,166.016529 C91.0259122,169.925084 84.2383098,171.475733 70.3054594,171.475733 C56.2040047,171.475733 48.3690116,165.520934 46.5475737,161.584278 C42.1536422,152.081124 40.4573802,141.793704 42.161306,131.312133 C43.2214697,124.800429 43.9597524,121.300612 65.627966,121.300612 C89.6362036,121.300612 99.1827863,125.753299 102.107816,127.163445 C106.764873,129.408948 108.274648,134.648456 108.037069,139.729578 L108.037069,139.729578 Z M208.055214,161.584278 C206.233776,165.520934 198.398783,171.475733 184.297328,171.475733 C170.367032,171.475733 163.576875,169.925084 159.062877,166.016529 C151.077162,159.101196 147.058758,150.177938 146.568273,139.729578 C146.328139,134.651011 147.840469,129.408948 152.494971,127.165999 C155.420001,125.755854 164.966584,121.303166 188.974821,121.303166 C210.64048,121.303166 211.378763,124.800429 212.441481,131.314688 C214.145407,141.793704 212.449145,152.081124 208.055214,161.584278 L208.055214,161.584278 Z" fill="#333333"></path>
		<path d="M108.037069,139.729578 C107.546584,150.177938 103.52818,159.101196 95.5399105,166.016529 C91.0259122,169.925084 84.2383098,171.475733 70.3054594,171.475733 C56.2040047,171.475733 48.3690116,165.520934 46.5475737,161.584278 C42.1536422,152.081124 40.4573802,141.793704 42.161306,131.312133 C43.2214697,124.800429 43.9597524,121.300612 65.627966,121.300612 C89.6362036,121.300612 99.1827863,125.753299 102.107816,127.163445 C106.764873,129.408948 108.274648,134.648456 108.037069,139.729578 L108.037069,139.729578 Z M208.055214,161.584278 C206.233776,165.520934 198.398783,171.475733 184.297328,171.475733 C170.367032,171.475733 163.576875,169.925084 159.062877,166.016529 C151.077162,159.101196 147.058758,150.177938 146.568273,139.729578 C146.328139,134.651011 147.840469,129.408948 152.494971,127.165999 C155.420001,125.755854 164.966584,121.303166 188.974821,121.303166 C210.64048,121.303166 211.378763,124.800429 212.441481,131.314688 C214.145407,141.793704 212.449145,152.081124 208.055214,161.584278 L208.055214,161.584278 Z" opacity="0.5" fill="#FFFFFF"></path>
		<path d="M136.569524,141.448831 C136.569524,143.127211 135.207916,144.486264 133.526982,144.486264 L121.967365,144.486264 C120.286431,144.486264 118.924823,143.127211 118.924823,141.448831 L118.924823,121.701686 C118.924823,120.023306 120.286431,118.664253 121.967365,118.664253 L133.526982,118.664253 C135.207916,118.664253 136.569524,120.023306 136.569524,121.701686 L136.569524,141.448831 L136.569524,141.448831 Z" fill="#FFFFFF"></path>
		<path d="M190.844797,202.9511 C184.688183,190.571453 175.782808,205.748399 127.301394,205.748399 C78.8199791,205.748399 69.9146039,190.571453 63.7579905,202.9511 C57.0981187,216.344927 95.7672709,230.221576 127.301394,230.221576 C158.835516,230.221576 197.507223,216.344927 190.844797,202.9511 L190.844797,202.9511 Z" fill="#FFFFFF"></path>
		<path d="M190.844797,202.9511 C184.688183,190.571453 175.782808,205.748399 127.301394,205.748399 L127.301394,230.221576 C158.835516,230.221576 197.507223,216.344927 190.844797,202.9511 L190.844797,202.9511 Z" fill="#F0F0F0"></path>
		<path d="M127.303948,0 C107.748398,0 93.6137335,7.54632198 95.4556083,16.7914605 C97.3000377,26.0340444 100.891821,45.2804865 127.303948,45.2804865 C153.716075,45.2804865 157.307859,26.0340444 159.152288,16.7914605 C160.994163,7.54632198 146.859498,0 127.303948,0 L127.303948,0 Z" fill="#666666"></path>
		<path d="M127.303948,0 C146.859498,0 160.994163,7.54632198 159.152288,16.7914605 C157.310413,26.036599 153.716075,45.2804865 127.303948,45.2804865 L127.303948,0 L127.303948,0 Z" fill="#4D4D4D"></path>
    </g>
</svg>
